src/public/images/location.svg

<svg xmlns="http://www.w3.org/2000/svg" width="512" height="512" fill="#48811a" xmlns:v="https://vecta.io/nano"><path d="M256.969 252.285c-19.446 0-38.895-7.402-53.696-22.207-29.609-29.605-29.609-77.781 0-107.39 14.34-14.344 33.411-22.243 53.696-22.243s39.351 7.903 53.695 22.243c29.609 29.609 29.609 77.785 0 107.39-14.805 14.805-34.25 22.207-53.695 22.207zm0-121.781c-11.754 0-23.508 4.473-32.457 13.422-17.899 17.898-17.899 47.019 0 64.918 8.668 8.668 20.195 13.441 32.457 13.441s23.789-4.773 32.457-13.441c17.898-17.899 17.898-47.02 0-64.918-8.949-8.949-20.703-13.422-32.457-13.422zM257.145 512l-11.614-13.641C238.734 490.371 79 301.309 79 177.969 79 79.836 158.836 0 256.969 0s177.969 79.836 177.969 177.969c0 117.273-159.594 311.984-166.387 320.215L257.145 512zm-.176-481.965c-81.571 0-147.934 66.363-147.934 147.934 0 45.843 27.336 112.187 79.055 191.863 26.84 41.348 53.867 76.363 68.715 94.895 14.871-19.039 42.156-55.207 69.164-97.34 51.64-80.551 78.933-146.055 78.933-189.418 0-81.571-66.363-147.934-147.933-147.934h0z"/></svg>

<svg width="512" height="512" viewBox="0 0 512 512" fill="none" xmlns="http://www.w3.org/2000/svg">
<path d="M256.969 252.285C237.523 252.285 218.074 244.883 203.273 230.078C173.664 200.473 173.664 152.297 203.273 122.688C217.613 108.344 236.684 100.445 256.969 100.445C277.254 100.445 296.32 108.348 310.664 122.688C340.273 152.297 340.273 200.473 310.664 230.078C295.859 244.883 276.414 252.285 256.969 252.285ZM256.969 130.504C245.215 130.504 233.461 134.977 224.512 143.926C206.613 161.824 206.613 190.945 224.512 208.844C233.18 217.512 244.707 222.285 256.969 222.285C269.23 222.285 280.758 217.512 289.426 208.844C307.324 190.945 307.324 161.824 289.426 143.926C280.477 134.977 268.723 130.504 256.969 130.504Z" fill="#48811A"/>
<path d="M257.145 512L245.531 498.359C238.734 490.371 79 301.309 79 177.969C79 79.8359 158.836 0 256.969 0C355.102 0 434.938 79.8359 434.938 177.969C434.938 295.242 275.344 489.953 268.551 498.184L257.145 512ZM256.969 30.0352C175.398 30.0352 109.035 96.3984 109.035 177.969C109.035 223.812 136.371 290.156 188.09 369.832C214.93 411.18 241.957 446.195 256.805 464.727C271.676 445.688 298.961 409.52 325.969 367.387C377.609 286.836 404.902 221.332 404.902 177.969C404.902 96.3984 338.539 30.0352 256.969 30.0352V30.0352Z" fill="#48811A"/>
</svg>
